X: 27135
T: Miss McGuinness
R: reel
M: 4/4
K: Dmajor
B|AD D/D/D ADFA|ABde fedB|AD D/D/D ADFA|BdAF FEEB|
AD D/D/D ADFA|ABde fedB|AD D/D/D ADFA|BdAF FEE2||
e3f d2 ed|BdAd BdAd|e3f d2 ed|BdAF FEE2|
e3f d2 ed|BdAd BdAd|f3d e/f/e ed|BABc d3B||

